X:1
T:Title
%%score { 1 | 2 }
L:1/8
M:3/4
K:Bb
V:1 treble nm="Grand Piano"
V:2 bass 
V:1
 z2 z2[Q:1/4=100] [DF]>[_D=E] | [_DG]2 [=DF]2 [DB]>[DA] | c2 G2 A>G | C4 G2 |[M:2/4] [DF]4 | %5
[M:1/4] [DF]>[_D=E] |[M:3/4] [_DG]2 [=DF]2 [DB]>[DA] | c2 G2 (3c[Fd][Ge] | [Fd]4 [Ec]2 | %9
[M:2/4] [DB]4 |[M:1/4] [Fd]>[Ec] |[M:3/4] [Ge]2 [Fd]2 [Ec]>[DB] | c2 G2 A>G | F4 [Ge]2 | %14
[M:2/4] [Fd]4 |[M:1/4] [DF]>[_D=E] |[M:3/4] [_DG]2 [=DF]2 [DB]>[DA] | c2 G2 (3c[Fd][Ge] | %18
 [Fd]4 [Ec]2 |[M:6/4] .[DB]6 z6 |] %20
V:2
 z2 z2 [B,,B,]>[B,,B,] | [B,,B,]2 [B,,B,]2 [B,,F,]>[B,,F,] | [E,G,E]2 [E,B,E]2 [E,B,E]>[E,B,E] | %3
 [F,A,]4 [F,A,E]2 |[M:2/4] [B,,B,]4 |[M:1/4] [B,,B,]>[B,,B,] | %6
[M:3/4] [B,,B,]2 [B,,B,]2 [B,,F,]>[B,,F,] | [E,G,E]2 [E,B,E]2 (3[E,G,E][D,=B,][C,C] | %8
 [F,B,]4 [F,A,]2 |[M:2/4] [B,,B,]4 |[M:1/4] [B,,B,]>[B,,B,] | %11
[M:3/4] [B,,B,]2 [B,,B,]2 [B,,B,]>[B,,B,] | [E,G,E]2 [E,B,E]2 [E,B,E]>[E,B,E] | [F,A,E]4 [F,A,]2 | %14
[M:2/4] [B,,B,]4 |[M:1/4] [B,,B,]>[B,,B,] |[M:3/4] [B,,B,]2 [B,,B,]2 [B,,F,]>[B,,F,] | %17
 [E,G,E]2 [E,B,E]2 (3[E,G,E][D,=B,][C,C] | [F,B,]4 [F,A,]2 |[M:6/4] .[B,,B,]6 z6 |] %20

